X: 2
T: The Scholar
R: reel
M: 4/4
L: 1/8
K: Dmaj
a2 af dfaf| cfaf Bfaf|g2 ge cege|Bege Aege|a2 af dfaf|cfaf Bfaf|g2 gf gbag|fdec defg|


Tune 94	Setting 24085

